X: 27239
T: Miss Sarah Drummond Of Perth
R: strathspey
M: 4/4
K: Amixolydian
A2 e>d B<d e2|d<gB<g d<gB<G|A2 e>d B<de>f|(3gfe g>B A2 A>e|
A2 e>d B<d e2|d<gB<g d<gB<G|A2 e>d B<de>f|(3gfe g>B A2 A>e||
a2 e<a c<ae>f|g2 d<g B<gd>e|a2 e<a c<ae>f|(3gfe g>B A2 A>e|
a2 e<a c<ae>f|g2 d<g B<gd>e|a2 e<a c<ae>f|(3gfe g>B A2 A>e||

